X:1
T:Title
%%score ( 1 2 3 ) { 4 | ( 5 6 ) }
L:1/8
Q:1/4=115
M:4/4
K:G
V:1 treble nm="Grand Piano, Staff 1"
V:2 treble 
V:3 treble 
V:4 treble nm="Choir Pad, Alma Mater, SM"
V:5 bass 
V:6 bass 
V:1
 [Gd]2 [GB]2 G2 [GB]2 | [FA]2 G6 | z8 | ^c2 z2 z4 | [DB]2 [Gc]2 [Dc]2 [DB]2 | %5
w: By~Richard~Redhead~(1820\-1901) * * *|||||
 G2 [EA]2 [EG]2 [DF]2 | [DG]2 [EG][FA] [GB]2 [GA]2 | [FA]2 G6- | G2 z2 z4 |] %9
w: ||||
V:2
 x8 | x8 | [DB]2 [DA]2 [Fd]2 d2 | z E [Fd]6 | x8 | x8 | x8 | x8 | x8 |] %9
V:3
 x8 | x8 | z4 z2 E2- | E z z2 z4 | x8 | x8 | x8 | x8 | x8 |] %9
V:4
 B,2 D2 B,2 D2 | C2[K:bass] B,6 | G,2 A,2 A,2 A,2 | A,2 A,6 | G,2 C2 A,2 B,2 | B,2 E2 A,2 A,2 | %6
 G,2[K:treble] C2 D2 D2- | D2 B,6- | B,2 z2 z4 |] %9
V:5
 G,2 G,2 G,2 D,2 | D,2 G,6 | z2 F,2 D,2 z2 | A,,2 D,6 | z2 G,2 F,2 G,2 | E,2 C,2 ^C,2 D,2 | %6
 B,,2 C,2 G,,2 D,2 | z C G,,6- | G,,2 z2 z4 |] %9
V:6
 x8 | x8 | x8 | x8 | x8 | x8 | x8 | D,2 z2 z4 | x8 |] %9

